ox-hugo/f4X1VZI.svg

<?xml version="1.0" encoding="UTF-8" standalone="no"?>
<svg
   width="167.98163pt"
   height="40.480469pt"
   viewBox="0 0 167.98163 40.48047"
   version="1.1"
   id="svg32"
   xmlns:xlink="http://www.w3.org/1999/xlink"
   xmlns="http://www.w3.org/2000/svg"
   xmlns:svg="http://www.w3.org/2000/svg">
  <defs
     id="defs14">
    <g
       id="g9">
      <g
         id="glyph-0-0" />
      <g
         id="glyph-0-1">
        <path
           d="m 3.3125,-0.75 c 0.046875,0.390625 0.3125,0.8125 0.78125,0.8125 0.21875,0 0.828125,-0.140625 0.828125,-0.953125 v -0.5625 h -0.25 v 0.5625 c 0,0.578125 -0.25,0.640625 -0.359375,0.640625 -0.328125,0 -0.375,-0.453125 -0.375,-0.5 v -1.984375 c 0,-0.421875 0,-0.8125 -0.359375,-1.1875 C 3.1875,-4.3125 2.6875,-4.46875 2.21875,-4.46875 c -0.828125,0 -1.515625,0.46875 -1.515625,1.125 0,0.296875 0.203125,0.46875 0.46875,0.46875 0.28125,0 0.453125,-0.203125 0.453125,-0.453125 0,-0.125 -0.046875,-0.453125 -0.515625,-0.453125 C 1.390625,-4.140625 1.875,-4.25 2.1875,-4.25 c 0.5,0 1.0625,0.390625 1.0625,1.28125 v 0.359375 c -0.515625,0.03125 -1.203125,0.0625 -1.828125,0.359375 -0.75,0.34375 -1,0.859375 -1,1.296875 0,0.8125 0.96875,1.0625 1.59375,1.0625 0.65625,0 1.109375,-0.40625 1.296875,-0.859375 z M 3.25,-2.390625 v 1 c 0,0.9375 -0.71875,1.28125 -1.171875,1.28125 -0.484375,0 -0.890625,-0.34375 -0.890625,-0.84375 0,-0.546875 0.421875,-1.375 2.0625,-1.4375 z m 0,0"
           id="path3" />
      </g>
      <g
         id="glyph-0-2">
        <path
           d="m 1.71875,-3.984375 h 1.4375 v -0.3125 H 1.71875 V -6.125 h -0.25 c 0,0.8125 -0.296875,1.875 -1.28125,1.921875 v 0.21875 h 0.84375 v 2.75 c 0,1.21875 0.9375,1.34375 1.296875,1.34375 0.703125,0 0.984375,-0.703125 0.984375,-1.34375 v -0.5625 h -0.25 V -1.25 c 0,0.734375 -0.296875,1.109375 -0.671875,1.109375 -0.671875,0 -0.671875,-0.90625 -0.671875,-1.078125 z m 0,0"
           id="path6" />
      </g>
    </g>
    <clipPath
       id="clip-0">
      <path
         clip-rule="nonzero"
         d="m 63,0 h 48 V 40.480469 H 63 Z m 0,0"
         id="path11" />
    </clipPath>
  </defs>
  <g
     clip-path="url(#clip-0)"
     id="g18"
     transform="translate(-3.7428751)">
    <path
       fill="none"
       stroke-width="0.797"
       stroke-linecap="butt"
       stroke-linejoin="miter"
       stroke="#000000"
       stroke-opacity="1"
       stroke-miterlimit="10"
       d="M 10.912531,-0.0011875 -13.88825,19.842562 v -39.683593 l 24.800781,19.8398435"
       transform="matrix(1,0,0,-1,88.357,20.241)"
       id="path16" />
  </g>
  <path
     fill="none"
     stroke-width="0.797"
     stroke-linecap="butt"
     stroke-linejoin="miter"
     stroke="#000000"
     stroke-opacity="1"
     stroke-miterlimit="10"
     d="m 98.503219,20.242187 c 0,-0.824218 -0.664063,-1.488281 -1.488281,-1.488281 -0.820313,0 -1.488282,0.664063 -1.488282,1.488281 0,0.820313 0.667969,1.488282 1.488282,1.488282 0.824218,0 1.488281,-0.667969 1.488281,-1.488282 z m 0,0"
     id="path20" />
  <path
     fill="none"
     stroke-width="0.3985"
     stroke-linecap="butt"
     stroke-linejoin="miter"
     stroke="#000000"
     stroke-opacity="1"
     stroke-miterlimit="10"
     d="m 64.77275,20.242187 h 5.953125 m 33.730465,0 h -5.953121"
     id="path22" />
  <g
     fill="#000000"
     fill-opacity="1"
     id="g26"
     transform="translate(-3.7428751)">
    <use
       xlink:href="#glyph-0-1"
       x="3.3210001"
       y="22.386"
       id="use24" />
  </g>
  <g
     fill="#000000"
     fill-opacity="1"
     id="g30"
     transform="translate(-3.7428751)">
    <use
       xlink:href="#glyph-0-2"
       x="168.412"
       y="23.305"
       id="use28" />
  </g>
</svg>

<?xml version="1.0" encoding="UTF-8" standalone="no"?>
<svg
   width="175.607pt"
   height="40.482pt"
   viewBox="0 0 175.607 40.482"
   version="1.1"
   id="svg32"
   xmlns:xlink="http://www.w3.org/1999/xlink"
   xmlns="http://www.w3.org/2000/svg"
   xmlns:svg="http://www.w3.org/2000/svg">
  <defs
     id="defs14">
    <g
       id="g9">
      <g
         id="glyph-0-0" />
      <g
         id="glyph-0-1">
        <path
           d="M 3.3125 -0.75 C 3.359375 -0.359375 3.625 0.0625 4.09375 0.0625 C 4.3125 0.0625 4.921875 -0.078125 4.921875 -0.890625 L 4.921875 -1.453125 L 4.671875 -1.453125 L 4.671875 -0.890625 C 4.671875 -0.3125 4.421875 -0.25 4.3125 -0.25 C 3.984375 -0.25 3.9375 -0.703125 3.9375 -0.75 L 3.9375 -2.734375 C 3.9375 -3.15625 3.9375 -3.546875 3.578125 -3.921875 C 3.1875 -4.3125 2.6875 -4.46875 2.21875 -4.46875 C 1.390625 -4.46875 0.703125 -4 0.703125 -3.34375 C 0.703125 -3.046875 0.90625 -2.875 1.171875 -2.875 C 1.453125 -2.875 1.625 -3.078125 1.625 -3.328125 C 1.625 -3.453125 1.578125 -3.78125 1.109375 -3.78125 C 1.390625 -4.140625 1.875 -4.25 2.1875 -4.25 C 2.6875 -4.25 3.25 -3.859375 3.25 -2.96875 L 3.25 -2.609375 C 2.734375 -2.578125 2.046875 -2.546875 1.421875 -2.25 C 0.671875 -1.90625 0.421875 -1.390625 0.421875 -0.953125 C 0.421875 -0.140625 1.390625 0.109375 2.015625 0.109375 C 2.671875 0.109375 3.125 -0.296875 3.3125 -0.75 Z M 3.25 -2.390625 L 3.25 -1.390625 C 3.25 -0.453125 2.53125 -0.109375 2.078125 -0.109375 C 1.59375 -0.109375 1.1875 -0.453125 1.1875 -0.953125 C 1.1875 -1.5 1.609375 -2.328125 3.25 -2.390625 Z M 3.25 -2.390625 "
           id="path3" />
      </g>
      <g
         id="glyph-0-2">
        <path
           d="M 1.71875 -3.984375 L 3.15625 -3.984375 L 3.15625 -4.296875 L 1.71875 -4.296875 L 1.71875 -6.125 L 1.46875 -6.125 C 1.46875 -5.3125 1.171875 -4.25 0.1875 -4.203125 L 0.1875 -3.984375 L 1.03125 -3.984375 L 1.03125 -1.234375 C 1.03125 -0.015625 1.96875 0.109375 2.328125 0.109375 C 3.03125 0.109375 3.3125 -0.59375 3.3125 -1.234375 L 3.3125 -1.796875 L 3.0625 -1.796875 L 3.0625 -1.25 C 3.0625 -0.515625 2.765625 -0.140625 2.390625 -0.140625 C 1.71875 -0.140625 1.71875 -1.046875 1.71875 -1.21875 Z M 1.71875 -3.984375 "
           id="path6" />
      </g>
    </g>
    <clipPath
       id="clip-0">
      <path
         clip-rule="nonzero"
         d="M 63 0 L 111 0 L 111 40.480469 L 63 40.480469 Z M 63 0 "
         id="path11" />
    </clipPath>
  </defs>
  <g
     clip-path="url(#clip-0)"
     id="g18">
    <path
       fill="none"
       stroke-width="0.797"
       stroke-linecap="butt"
       stroke-linejoin="miter"
       stroke="#000000"
       stroke-opacity="1"
       stroke-miterlimit="10"
       d="M 10.912531,-0.0011875 -13.88825,19.842562 v -39.683593 l 24.800781,19.8398435"
       transform="matrix(1,0,0,-1,88.357,20.241)"
       id="path16" />
  </g>
  <path
     fill="none"
     stroke-width="0.797"
     stroke-linecap="butt"
     stroke-linejoin="miter"
     stroke="rgb(0%, 0%, 0%)"
     stroke-opacity="1"
     stroke-miterlimit="10"
     d="M 13.889094 -0.0011875 C 13.889094 0.823031 13.225031 1.487094 12.400813 1.487094 C 11.5805 1.487094 10.912531 0.823031 10.912531 -0.0011875 C 10.912531 -0.8215 11.5805 -1.489469 12.400813 -1.489469 C 13.225031 -1.489469 13.889094 -0.8215 13.889094 -0.0011875 Z M 13.889094 -0.0011875 "
     transform="matrix(1, 0, 0, -1, 88.357, 20.241)"
     id="path20" />
  <path
     fill="none"
     stroke-width="0.3985"
     stroke-linecap="butt"
     stroke-linejoin="miter"
     stroke="rgb(0%, 0%, 0%)"
     stroke-opacity="1"
     stroke-miterlimit="10"
     d="M -19.841375 -0.0011875 L -13.88825 -0.0011875 M 19.842219 -0.0011875 L 13.889094 -0.0011875 "
     transform="matrix(1, 0, 0, -1, 88.357, 20.241)"
     id="path22" />
  <g
     fill="#000000"
     fill-opacity="1"
     id="g26">
    <use
       xlink:href="#glyph-0-1"
       x="3.3210001"
       y="22.386"
       id="use24" />
  </g>
  <g
     fill="#000000"
     fill-opacity="1"
     id="g30">
    <use
       xlink:href="#glyph-0-2"
       x="168.412"
       y="23.305"
       id="use28" />
  </g>
</svg>
